public/icons8-java.svg

<svg xmlns="http://www.w3.org/2000/svg"  viewBox="0 0 50 50" width="100px" height="100px"><path d="M 28.1875 0 C 30.9375 6.363281 18.328125 10.292969 17.15625 15.59375 C 16.082031 20.464844 24.648438 26.125 24.65625 26.125 C 23.355469 24.109375 22.398438 22.449219 21.09375 19.3125 C 18.886719 14.007813 34.535156 9.207031 28.1875 0 Z M 36.5625 8.8125 C 36.5625 8.8125 25.5 9.523438 24.9375 16.59375 C 24.6875 19.742188 27.847656 21.398438 27.9375 23.6875 C 28.011719 25.558594 26.0625 27.125 26.0625 27.125 C 26.0625 27.125 29.609375 26.449219 30.71875 23.59375 C 31.949219 20.425781 28.320313 18.285156 28.6875 15.75 C 29.039063 13.324219 36.5625 8.8125 36.5625 8.8125 Z M 19.1875 25.15625 C 19.1875 25.15625 9.0625 25.011719 9.0625 27.875 C 9.0625 30.867188 22.316406 31.089844 31.78125 29.25 C 31.78125 29.25 34.296875 27.519531 34.96875 26.875 C 28.765625 28.140625 14.625 28.28125 14.625 27.1875 C 14.625 26.179688 19.1875 25.15625 19.1875 25.15625 Z M 38.65625 25.15625 C 37.664063 25.234375 36.59375 25.617188 35.625 26.3125 C 37.90625 25.820313 39.84375 27.234375 39.84375 28.84375 C 39.84375 32.46875 34.59375 35.875 34.59375 35.875 C 34.59375 35.875 42.71875 34.953125 42.71875 29 C 42.71875 26.296875 40.839844 24.984375 38.65625 25.15625 Z M 16.75 30.71875 C 15.195313 30.71875 12.875 31.9375 12.875 33.09375 C 12.875 35.417969 24.5625 37.207031 33.21875 33.8125 L 30.21875 31.96875 C 24.351563 33.847656 13.546875 33.234375 16.75 30.71875 Z M 18.1875 35.9375 C 16.058594 35.9375 14.65625 37.222656 14.65625 38.1875 C 14.65625 41.171875 27.371094 41.472656 32.40625 38.4375 L 29.21875 36.40625 C 25.457031 37.996094 16.015625 38.238281 18.1875 35.9375 Z M 11.09375 38.625 C 7.625 38.554688 5.375 40.113281 5.375 41.40625 C 5.375 48.28125 40.875 47.964844 40.875 40.9375 C 40.875 39.769531 39.527344 39.203125 39.03125 38.9375 C 41.933594 45.65625 9.96875 45.121094 9.96875 41.15625 C 9.96875 40.253906 12.320313 39.390625 14.5 39.8125 L 12.65625 38.75 C 12.113281 38.667969 11.589844 38.636719 11.09375 38.625 Z M 44.625 43.25 C 39.226563 48.367188 25.546875 50.222656 11.78125 47.0625 C 25.542969 52.695313 44.558594 49.535156 44.625 43.25 Z"/></svg>

<svg xmlns="http://www.w3.org/2000/svg" viewBox="0 0 50 50" width="100" height="100"><path d="M28.188 0c2.75 6.363-9.86 10.293-11.032 15.594-1.074 4.87 7.492 10.531 7.5 10.531-1.3-2.016-2.258-3.676-3.562-6.813C18.887 14.008 34.535 9.207 28.187 0Zm8.375 8.813s-11.063.71-11.626 7.78c-.25 3.15 2.91 4.805 3 7.095.075 1.87-1.875 3.437-1.875 3.437s3.547-.676 4.657-3.531c1.23-3.168-2.399-5.309-2.032-7.844.352-2.426 7.875-6.938 7.875-6.938ZM19.186 25.155s-10.125-.144-10.125 2.719c0 2.992 13.254 3.215 22.72 1.375 0 0 2.515-1.73 3.187-2.375-6.203 1.266-20.344 1.406-20.344.313 0-1.008 4.563-2.032 4.563-2.032Zm19.47 0c-.993.078-2.063.461-3.032 1.157 2.281-.493 4.219.921 4.219 2.53 0 3.626-5.25 7.032-5.25 7.032s8.125-.922 8.125-6.875c0-2.703-1.88-4.016-4.063-3.844ZM16.75 30.72c-1.555 0-3.875 1.218-3.875 2.375 0 2.324 11.688 4.113 20.344.718l-3-1.843c-5.867 1.879-16.672 1.265-13.469-1.25Zm1.438 5.218c-2.13 0-3.532 1.286-3.532 2.25 0 2.985 12.715 3.286 17.75.25l-3.187-2.03c-3.762 1.59-13.203 1.831-11.032-.47Zm-7.094 2.688c-3.469-.07-5.719 1.488-5.719 2.781 0 6.875 35.5 6.559 35.5-.468 0-1.168-1.348-1.735-1.844-2C41.934 45.656 9.97 45.12 9.97 41.156c0-.902 2.351-1.765 4.531-1.343l-1.844-1.063a12.349 12.349 0 0 0-1.562-.125Zm33.531 4.625c-5.398 5.117-19.078 6.973-32.844 3.813 13.762 5.632 32.778 2.472 32.844-3.813Z"/></svg>
